X: 3279
T: Slæbe-Vals
B:[[Notböcker/Melodier til gamle danske Almuedanse for Violin solo]]
O:Danmark
Z:Søren Bak Vestergaard
M: 3/4
L: 1/8
N: I originalen er nøglen angivet som D
K: G
(DG)|B3 DGB|d3 cBd|dcAdfa|gfgbgd|B3 DGB|\
d3 cBd|dcAdfa|g2 z2:| |:"_(Denne Del kan ogsaa spilles en Oktav dybere.)"!1!d2|!2!bdgbdg|bdgbd'b|c'afadf|\
bdgbdg|bdgbdg|bdgbd'b|c'afadf|g2 z2:|
(:musicend:)
(:music:)
